svg/folder_move_outline.svg

<?xml version="1.0" encoding="UTF-8"?><!DOCTYPE svg PUBLIC "-//W3C//DTD SVG 1.1//EN" "http://www.w3.org/Graphics/SVG/1.1/DTD/svg11.dtd"><svg xmlns="http://www.w3.org/2000/svg" xmlns:xlink="http://www.w3.org/1999/xlink" version="1.1" id="mdi-folder-move-outline" width="24" height="24" viewBox="0 0 24 24"><path d="M20 18H4V8H20V18M12 6L10 4H4C2.9 4 2 4.89 2 6V18C2 19.11 2.9 20 4 20H20C21.11 20 22 19.11 22 18V8C22 6.9 21.11 6 20 6H12M11 14V12H15V9L19 13L15 17V14H11Z" /></svg>

<svg xmlns="http://www.w3.org/2000/svg" viewBox="0 0 24 24"><path d="M20 18H4V8h16zM12 6l-2-2H4a2 2 0 0 0-2 2v12a2 2 0 0 0 2 2h16c1.11 0 2-.89 2-2V8a2 2 0 0 0-2-2zm-1 8v-2h4V9l4 4-4 4v-3z"/></svg>
